assets/images/common/submenu/library_black.svg

<svg height="36" viewBox="0 0 38 36" width="38" xmlns="http://www.w3.org/2000/svg"><path d="m5.55 29.99h1.85c.32 0 .59.23.59.51s-.27.51-.59.51h-1.85c-.33 0-.59-.23-.59-.51s.26-.51.59-.51zm0-3.02h1.84c.32 0 .59.2.59.48s-.27.5-.59.5h-1.84c-.33 0-.6-.03-.6-.38s.27-.6.6-.6zm31.45-9.39-.08 16.44h.08v.98h-32.78c-1.23 0-2.22-.85-2.22-1.9v-26.4c0-1.04.99-1.71 2.22-1.71h2.95c.41 0 .74.1.74.45s-.33.57-.74.57h-3.43c-.41 0-.74.28-.74.63v26.74c0 .35.33.64.74.64h5.28v-25h-3.33c-.4 0-1.03-.15-1.03-.5s.63-.54 1.03-.54h3.33v-5.07c0-1.05 1-1.9 2.22-1.9h7.24c1.24 0 1.53.83 1.53 1.9v1.07h6.37c.41 0 .74.16.74.51s-.33.53-.74.53h-6.37v29h8.97v-30.1c0-1.04.9-1.89 2.12-1.89h3.63c1.24 0 2.22.83 2.22 1.89l.05 4.61zm-17.98-14.92c0-.36-.14-.63-.56-.63h-7.71c-.41 0-.73.27-.73.63v2.33h7.49c.41 0 .74.01.74.36 0 .34-.33.63-.74.63h-7.49v28.04h9zm16.98.95c0-.36-.32-.63-.74-.63h-4.55c-.41 0-.74.28-.74.63l.03 2.37h3.77c.4 0 .73.16.73.51 0 .34-.33.53-.73.53h-3.77l-.03 27h6.03zm-23.05 23.33h3.62c.33 0 .6.24.6.52 0 .29-.27.52-.6.52h-3.62c-.34 0-.61-.23-.61-.52 0-.28.27-.52.61-.52zm0 3.05h3.64c.34 0 .61.23.61.52s-.27.52-.61.52h-3.64c-.34 0-.61-.23-.61-.52s.27-.52.61-.52zm4.52-9.02h-4.74c-.41 0-.74-.28-.74-.63v-8.73c0-.35.33-.63.74-.63h4.74c.4 0 .55.28.55.63v8.73c0 .35-.15.63-.55.63zm-.45-8.95h-4v7.97h4zm9.22 8.98h-3.55c-.4 0-.74-.28-.74-.63v-8.76c0-.35.34-.63.74-.63h3.55c.41 0 .74.28.74.63v8.76c0 .35-.33.63-.74.63zm-.26-8.98h-2.95v7.97h2.95zm5.9 17.83h1.48c.41 0 .74.28.74.63s-.33.63-.74.63h-1.48c-.41 0-.74-.28-.74-.63s.33-.63.74-.63zm0-2.91h1.48c.41 0 .74.28.74.63s-.33.63-.74.63h-1.48c-.41 0-.74-.28-.74-.63s.33-.63.74-.63zm-26.33-11.95h1.85c.32 0 .59.23.59.51s-.27.51-.59.51h-1.85c-.33 0-.59-.23-.59-.51s.26-.51.59-.51zm0-3.02h1.84c.32 0 .59.2.59.48s-.27.5-.59.5h-1.84c-.33 0-.6-.03-.6-.38s.27-.6.6-.6zm17.36 15.01h3.63c.33 0 .6.23.6.51 0 .29-.27.52-.6.52h-3.63c-.33 0-.6-.23-.6-.52 0-.28.27-.51.6-.51zm.01 3.04h3.64c.34 0 .61.23.61.52s-.27.52-.61.52h-3.64c-.34 0-.61-.23-.61-.52s.27-.52.61-.52zm9.04-15.03h1.84c.33 0 .6.23.6.51s-.27.51-.6.51h-1.84c-.33 0-.6-.23-.6-.51s.27-.51.6-.51zm0-3.02h1.83c.33 0 .6.2.6.48s-.27.5-.6.5h-1.83c-.33 0-.6-.03-.6-.38s.27-.6.6-.6z" fill="#333"/></svg>

<svg xmlns="http://www.w3.org/2000/svg" viewBox="0 0 38 36" width="38" height="36">
	<style>
		tspan { white-space:pre }
		.shp0 { fill: #333333 } 
	</style>
	<path id="Library" class="shp0" d="M5.55 29.99L7.4 29.99C7.72 29.99 7.99 30.22 7.99 30.5C7.99 30.78 7.72 31.01 7.4 31.01L5.55 31.01C5.22 31.01 4.96 30.78 4.96 30.5C4.96 30.22 5.22 29.99 5.55 29.99ZM5.55 26.97L7.39 26.97C7.71 26.97 7.98 27.17 7.98 27.45C7.98 27.73 7.71 27.95 7.39 27.95L5.55 27.95C5.22 27.95 4.95 27.92 4.95 27.57C4.95 27.22 5.22 26.97 5.55 26.97ZM37 17.58L36.92 34.02L37 34.02L37 35L4.22 35C2.99 35 2 34.15 2 33.1L2 6.7C2 5.66 2.99 4.99 4.22 4.99L7.17 4.99C7.58 4.99 7.91 5.09 7.91 5.44C7.91 5.79 7.58 6.01 7.17 6.01L3.74 6.01C3.33 6.01 3 6.29 3 6.64L3 33.38C3 33.73 3.33 34.02 3.74 34.02L9.02 34.02L9.02 9.02L5.69 9.02C5.29 9.02 4.66 8.87 4.66 8.52C4.66 8.17 5.29 7.98 5.69 7.98L9.02 7.98L9.02 2.91C9.02 1.86 10.02 1.01 11.24 1.01L18.48 1.01C19.72 1.01 20.01 1.84 20.01 2.91L20.01 3.98L26.38 3.98C26.79 3.98 27.12 4.14 27.12 4.49C27.12 4.84 26.79 5.02 26.38 5.02L20.01 5.02L20.01 34.02L28.98 34.02L28.98 3.92C28.98 2.88 29.88 2.03 31.1 2.03L34.73 2.03C35.97 2.03 36.95 2.86 36.95 3.92L37 8.53L37 17.58ZM19.02 2.66C19.02 2.3 18.88 2.03 18.46 2.03L10.75 2.03C10.34 2.03 10.02 2.3 10.02 2.66L10.02 4.99L17.51 4.99C17.92 4.99 18.25 5 18.25 5.35C18.25 5.69 17.92 5.98 17.51 5.98L10.02 5.98L10.02 34.02L19.02 34.02L19.02 2.66ZM36 3.61C36 3.25 35.68 2.98 35.26 2.98L30.71 2.98C30.3 2.98 29.97 3.26 29.97 3.61L30 5.98L33.77 5.98C34.17 5.98 34.5 6.14 34.5 6.49C34.5 6.83 34.17 7.02 33.77 7.02L30 7.02L29.97 34.02L36 34.02L36 3.61ZM12.95 26.94L16.57 26.94C16.9 26.94 17.17 27.18 17.17 27.46C17.17 27.75 16.9 27.98 16.57 27.98L12.95 27.98C12.61 27.98 12.34 27.75 12.34 27.46C12.34 27.18 12.61 26.94 12.95 26.94ZM12.95 29.99L16.59 29.99C16.93 29.99 17.2 30.22 17.2 30.51C17.2 30.8 16.93 31.03 16.59 31.03L12.95 31.03C12.61 31.03 12.34 30.8 12.34 30.51C12.34 30.22 12.61 29.99 12.95 29.99ZM17.47 20.97L12.73 20.97C12.32 20.97 11.99 20.69 11.99 20.34L11.99 11.61C11.99 11.26 12.32 10.98 12.73 10.98L17.47 10.98C17.87 10.98 18.02 11.26 18.02 11.61L18.02 20.34C18.02 20.69 17.87 20.97 17.47 20.97ZM17.02 12.02L13.02 12.02L13.02 19.99L17.02 19.99L17.02 12.02ZM26.24 21L22.69 21C22.29 21 21.95 20.72 21.95 20.37L21.95 11.61C21.95 11.26 22.29 10.98 22.69 10.98L26.24 10.98C26.65 10.98 26.98 11.26 26.98 11.61L26.98 20.37C26.98 20.72 26.65 21 26.24 21ZM25.98 12.02L23.03 12.02L23.03 19.99L25.98 19.99L25.98 12.02ZM31.88 29.85L33.36 29.85C33.77 29.85 34.1 30.13 34.1 30.48C34.1 30.83 33.77 31.11 33.36 31.11L31.88 31.11C31.47 31.11 31.14 30.83 31.14 30.48C31.14 30.13 31.47 29.85 31.88 29.85ZM31.88 26.94L33.36 26.94C33.77 26.94 34.1 27.22 34.1 27.57C34.1 27.92 33.77 28.2 33.36 28.2L31.88 28.2C31.47 28.2 31.14 27.92 31.14 27.57C31.14 27.22 31.47 26.94 31.88 26.94ZM5.55 14.99L7.4 14.99C7.72 14.99 7.99 15.22 7.99 15.5C7.99 15.78 7.72 16.01 7.4 16.01L5.55 16.01C5.22 16.01 4.96 15.78 4.96 15.5C4.96 15.22 5.22 14.99 5.55 14.99ZM5.55 11.97L7.39 11.97C7.71 11.97 7.98 12.17 7.98 12.45C7.98 12.73 7.71 12.95 7.39 12.95L5.55 12.95C5.22 12.95 4.95 12.92 4.95 12.57C4.95 12.22 5.22 11.97 5.55 11.97ZM22.91 26.98L26.54 26.98C26.87 26.98 27.14 27.21 27.14 27.49C27.14 27.78 26.87 28.01 26.54 28.01L22.91 28.01C22.58 28.01 22.31 27.78 22.31 27.49C22.31 27.21 22.58 26.98 22.91 26.98ZM22.92 30.02L26.56 30.02C26.9 30.02 27.17 30.25 27.17 30.54C27.17 30.83 26.9 31.06 26.56 31.06L22.92 31.06C22.58 31.06 22.31 30.83 22.31 30.54C22.31 30.25 22.58 30.02 22.92 30.02ZM31.96 14.99L33.8 14.99C34.13 14.99 34.4 15.22 34.4 15.5C34.4 15.78 34.13 16.01 33.8 16.01L31.96 16.01C31.63 16.01 31.36 15.78 31.36 15.5C31.36 15.22 31.63 14.99 31.96 14.99ZM31.96 11.97L33.79 11.97C34.12 11.97 34.39 12.17 34.39 12.45C34.39 12.73 34.12 12.95 33.79 12.95L31.96 12.95C31.63 12.95 31.36 12.92 31.36 12.57C31.36 12.22 31.63 11.97 31.96 11.97Z" />
</svg>
